images/xrp-coin-ver.svg

<svg width="76" height="123" viewBox="0 0 76 123" fill="none" xmlns="http://www.w3.org/2000/svg">
<path d="M33.0536 100.66C15.3509 90.1275 1 64.891 1 44.2922C0.999999 23.6934 15.3509 15.5327 33.0536 26.0647C50.7564 36.5967 65.1073 61.8332 65.1073 82.432C65.1073 103.031 50.7564 111.192 33.0536 100.66Z" fill="white" stroke="#0D0B33" stroke-width="1.14712"/>
<path fill-rule="evenodd" clip-rule="evenodd" d="M49.5476 57.5543L44.6965 54.7535L37.0286 59.0892C34.7138 60.3977 30.9617 58.2315 28.6482 54.2507L20.9804 41.061L16.1292 38.2602L26.222 55.6221C29.8761 61.9078 35.7994 65.3276 39.4535 63.2613L49.5476 57.5543ZM16.0675 70.3L20.9186 73.1008L28.6482 68.7296C30.963 67.421 34.7151 69.5872 37.0286 73.568L44.7595 86.8654L49.6107 89.6662L39.4548 72.1967C35.8007 65.911 29.8774 62.4911 26.2233 64.5574L16.0675 70.3Z" fill="black"/>
<path d="M33.0537 26.0648C24.2985 20.856 16.3631 20.2194 10.5782 23.3983L16.9403 19.7805C29.458 12.6622 49.7533 24.7366 62.271 46.7494C74.7887 68.7622 74.7887 92.3777 62.271 99.496L56.1522 102.975C56.1526 102.971 56.153 102.967 56.1534 102.963C61.6981 99.5569 65.1073 92.4719 65.1073 82.4321C65.1073 61.8333 50.7564 36.5968 33.0537 26.0648Z" fill="#79EFBD" stroke="#0D0B33" stroke-width="1.14712"/>
<path d="M64.9016 78.0613L71.4542 74.4269C71.3623 70.9204 70.9636 68.3889 69.6116 62.9349L62.6964 66.781C63.8068 70.5727 64.5614 74.3672 64.9016 78.0613Z" fill="#0D0B33"/>
<path d="M59.7282 58.5435L66.1406 54.7915C59.2863 40.0876 54.0488 33.1692 41.8612 23.5825L35.2077 27.4293C45.4374 34.3051 54.3546 45.9844 59.7282 58.5435Z" fill="#0D0B33"/>
</svg>

<svg xmlns="http://www.w3.org/2000/svg" width="76" height="123" fill="none"><path fill="#fff" stroke="#0D0B33" stroke-width="1.147" d="M33.054 100.66C15.35 90.128 1 64.891 1 44.292c0-20.599 14.35-28.76 32.054-18.227 17.702 10.532 32.053 35.768 32.053 56.367 0 20.599-14.35 28.76-32.053 18.228Z"/><path fill="#000" fill-rule="evenodd" d="m49.548 57.554-4.852-2.8-7.667 4.335c-2.315 1.309-6.067-.858-8.38-4.838L20.98 41.06l-4.85-2.8 10.092 17.361c3.654 6.286 9.577 9.706 13.231 7.64l10.095-5.708ZM16.068 70.3l4.85 2.8 7.73-4.37c2.315-1.309 6.067.857 8.38 4.838l7.732 13.297 4.85 2.801-10.155-17.47c-3.654-6.285-9.578-9.705-13.232-7.639L16.068 70.3Z" clip-rule="evenodd"/><path fill="#79EFBD" stroke="#0D0B33" stroke-width="1.147" d="M33.054 26.065c-8.756-5.209-16.69-5.846-22.476-2.667l6.362-3.617c12.518-7.119 32.813 4.956 45.331 26.968 12.518 22.013 12.518 45.629 0 52.747l-6.119 3.479.001-.012c5.545-3.406 8.954-10.491 8.954-20.53 0-20.6-14.35-45.836-32.053-56.368Z"/><path fill="#0D0B33" d="m64.902 78.061 6.552-3.634c-.092-3.507-.49-6.038-1.842-11.492l-6.916 3.846c1.11 3.792 1.865 7.586 2.206 11.28ZM59.728 58.544l6.413-3.752c-6.855-14.704-12.092-21.623-24.28-31.21l-6.653 3.847c10.23 6.876 19.147 18.555 24.52 31.115Z"/></svg>
